X: 15115
T: Ghost Story, The
R: jig
M: 6/8
K: Dminor
|:DCA,F3|FAG FDC|DGG GFG|AGF GAc|
dcA dfe|dcA GAc|efd cAG|Add d3:|
|:d2a age|age dcA|dcA c3|Ace g3|
aba age|age dcA|DCA, CA,G,|A,DD D3:|
|:GED DED|c3 cAG|Ade dcd|edc g3|
bag age|age dcA|dcA ECG,|A,DD D3:|

